X: 45
T:Gan Ainm
M:4/4
L:1/8
R:Highland
D:Session tape - Derrygonelly, Fermanagh 1993
Z:Bernie Stocks
K:G
G2BG EFG2 | A2cA FGA2 |1 GBdg ecAG | FGAF D2EF :|2 GBdg ecAF | G2GF G4 ||\
d2dc Bcd2 | eged cdef | g3d ecAG | FGAF D2EF | G2BG EFG2 | A2cA FGA2 |\
GBdg ecAF | G2GF G2Bc  | d2dc Bcd2 | eged cdef | g3d ecAG |\
FGAF D2EF | G2BG EFG2 | A2cA FGA2 | GBdg ecAF | G2GF G4 ||
<end>
<start>
